src/img/arrow.svg

<svg xmlns="http://www.w3.org/2000/svg" width="55" height="68" viewBox="0 0 55 68" fill="none">
	<path
		d="M0.900024 2.99961C1.50002 3.09961 2.20002 3.19961 2.80002 3.39961L3.30002 1.49961C2.60002 1.29961 2.00002 1.19961 1.30002 1.09961L0.900024 2.99961Z"
		fill="#EBEBEB" />
	<path
		d="M13.2 7.49922C14.3 8.09922 15.4 8.69922 16.4 9.39922L17.5 7.69922C16.4 6.99922 15.3 6.29922 14.2 5.69922L13.2 7.49922Z"
		fill="#EBEBEB" />
	<path
		d="M42.4 45.2996L44.3 44.6996C43.9 43.4996 43.5 42.1996 43 41.0996L41.1 41.7996C41.6 42.8996 42 44.0996 42.4 45.2996Z"
		fill="#EBEBEB" />
	<path
		d="M44.4 52.6L46.3 52.2C46 50.9 45.7 49.7 45.4 48.5L43.5 49C43.8 50.2 44.2 51.4 44.4 52.6Z"
		fill="#EBEBEB" />
	<path
		d="M45.8 59.9994L47.8 59.6994C47.6 58.3994 47.4 57.0994 47.2 55.8994L45.2 56.2994C45.4 57.4994 45.7 58.7994 45.8 59.9994Z"
		fill="#EBEBEB" />
	<path
		d="M6.40002 4.49961C7.60002 4.89961 8.70002 5.39961 9.90002 5.89961L10.6 3.99961C9.40002 3.49961 8.20002 2.99961 7.00002 2.59961L6.40002 4.49961Z"
		fill="#EBEBEB" />
	<path
		d="M34.5 28.2992C35.2 29.3992 35.8 30.3992 36.4 31.4992L38.1 30.4992C37.5 29.3992 36.8 28.2992 36.1 27.1992L34.5 28.2992Z"
		fill="#EBEBEB" />
	<path d="M40 34L38.2 34.9C38.8 36 39.3 37.2 39.8 38.3L41.6 37.5C41.1 36.3 40.5 35.1 40 34Z"
		fill="#EBEBEB" />
	<path
		d="M19.4 11.6C20.4 12.3 21.4 13.1 22.3 14L23.6 12.5C22.6 11.6 21.6 10.8 20.6 10L19.4 11.6Z"
		fill="#EBEBEB" />
	<path
		d="M30.1 22.0994C30.9 23.0994 31.6 24.0994 32.4 25.0994L34 23.9994C33.2 22.8994 32.5 21.8994 31.7 20.8994L30.1 22.0994Z"
		fill="#EBEBEB" />
	<path
		d="M25.1 16.4996C26 17.3996 26.9 18.2996 27.7 19.1996L29.2 17.8996C28.3 16.8996 27.4 15.9996 26.5 15.0996L25.1 16.4996Z"
		fill="#EBEBEB" />
	<path
		d="M50.8 57.2998L47.2 63.6998L46.9 63.7998L41.7 58.0998L39.9 59.6998L47.5 67.9998L52.9 58.4998L50.8 57.2998Z"
		fill="#EBEBEB" />
</svg>

<?xml version="1.0" encoding="utf-8"?>
<!-- Generator: Adobe Illustrator 28.0.0, SVG Export Plug-In . SVG Version: 6.00 Build 0)  -->
<svg version="1.1" id="Слой_1" xmlns="http://www.w3.org/2000/svg" xmlns:xlink="http://www.w3.org/1999/xlink" x="0px" y="0px"
	 viewBox="0 0 54.1 68" style="enable-background:new 0 0 54.1 68;" xml:space="preserve">
<style type="text/css">
	.st0{fill:#EBEBEB;}
</style>
<g>
	<path class="st0" d="M0.9,3c0.6,0.1,1.3,0.2,1.9,0.4l0.5-1.9c-0.7-0.2-1.3-0.3-2-0.4L0.9,3z"/>
	<path class="st0" d="M13.2,7.5c1.1,0.6,2.2,1.2,3.2,1.9l1.1-1.7c-1.1-0.7-2.2-1.4-3.3-2L13.2,7.5z"/>
	<path class="st0" d="M42.4,45.3l1.9-0.6c-0.4-1.2-0.8-2.5-1.3-3.6l-1.9,0.7C41.6,42.9,42,44.1,42.4,45.3z"/>
	<path class="st0" d="M44.4,52.6l1.9-0.4c-0.3-1.3-0.6-2.5-0.9-3.7l-1.9,0.5C43.8,50.2,44.2,51.4,44.4,52.6z"/>
	<path class="st0" d="M45.8,60l2-0.3c-0.2-1.3-0.4-2.6-0.6-3.8l-2,0.4C45.4,57.5,45.7,58.8,45.8,60z"/>
	<path class="st0" d="M6.4,4.5c1.2,0.4,2.3,0.9,3.5,1.4L10.6,4C9.4,3.5,8.2,3,7,2.6L6.4,4.5z"/>
	<path class="st0" d="M34.5,28.3c0.7,1.1,1.3,2.1,1.9,3.2l1.7-1c-0.6-1.1-1.3-2.2-2-3.3L34.5,28.3z"/>
	<path class="st0" d="M40,34l-1.8,0.9c0.6,1.1,1.1,2.3,1.6,3.4l1.8-0.8C41.1,36.3,40.5,35.1,40,34z"/>
	<path class="st0" d="M19.4,11.6c1,0.7,2,1.5,2.9,2.4l1.3-1.5c-1-0.9-2-1.7-3-2.5L19.4,11.6z"/>
	<path class="st0" d="M30.1,22.1c0.8,1,1.5,2,2.3,3L34,24c-0.8-1.1-1.5-2.1-2.3-3.1L30.1,22.1z"/>
	<path class="st0" d="M25.1,16.5c0.9,0.9,1.8,1.8,2.6,2.7l1.5-1.3c-0.9-1-1.8-1.9-2.7-2.8L25.1,16.5z"/>
	<polygon class="st0" points="50.8,57.3 47.2,63.7 46.9,63.8 41.7,58.1 39.9,59.7 47.5,68 52.9,58.5 	"/>
</g>
</svg>
